public/images/case-studies/maikeinc/feature6.svg

<svg width="64" height="64" viewBox="0 0 64 64" fill="none" xmlns="http://www.w3.org/2000/svg">
<path fill-rule="evenodd" clip-rule="evenodd" d="M56.7742 0C60.7587 0 64 3.24232 64 7.22581C64 10.8583 61.3027 13.8653 57.8064 14.369V34.6116C61.5773 37.6413 64 42.2823 64 47.4839C64 56.5905 56.5905 64 47.4839 64C38.7262 64 31.5572 57.1417 31.0204 48.5161H0V7.22581H49.5484C49.5484 3.24232 52.7897 0 56.7742 0ZM61.9355 7.22581C61.9355 4.37987 59.6201 2.06452 56.7742 2.06452C53.9283 2.06452 51.6129 4.37987 51.6129 7.22581C51.6129 10.0717 53.9283 12.3871 56.7742 12.3871C59.6201 12.3871 61.9355 10.0717 61.9355 7.22581ZM31.8049 42.3226C32.129 41.3399 32.5378 40.3974 33.0323 39.5055C33.8581 38.31 34.7527 37.0681 35.0968 36.5966C38.1254 33.1541 42.5497 30.9677 47.4839 30.9677C50.4939 30.9677 53.3089 31.7905 55.7419 33.2036V14.3701C54.5208 14.1935 53.3997 13.7135 52.4552 13.0054L46.1409 19.3187C46.335 19.7223 46.4516 20.1683 46.4516 20.6452C46.4516 22.3525 45.0622 23.7419 43.3548 23.7419C41.6475 23.7419 40.2581 22.3525 40.2581 20.6452C40.2581 20.1683 40.3747 19.7223 40.5677 19.3177L38.4877 17.2377C38.0841 17.4317 37.6382 17.5484 37.1613 17.5484C36.6844 17.5484 36.2384 17.4317 35.8338 17.2387L30.657 22.4155C30.8511 22.8191 30.9677 23.265 30.9677 23.7419C30.9677 25.4493 29.5783 26.8387 27.871 26.8387C26.1636 26.8387 24.7742 25.4493 24.7742 23.7419C24.7742 22.0346 26.1636 20.6452 27.871 20.6452C28.3479 20.6452 28.7938 20.7618 29.1985 20.9548L34.3752 15.7781C34.1812 15.3745 34.0645 14.9285 34.0645 14.4516C34.0645 12.7443 35.4539 11.3548 37.1613 11.3548C38.8686 11.3548 40.2581 12.7443 40.2581 14.4516C40.2581 14.9285 40.1414 15.3745 39.9484 15.7791L42.0284 17.8591C42.432 17.665 42.8779 17.5484 43.3548 17.5484C43.8317 17.5484 44.2777 17.665 44.6823 17.8591L50.9956 11.5458C50.4919 10.8728 50.0996 10.1141 49.8529 9.29032H2.06452V46.4516H31.0204C31.0637 45.7517 31.1412 45.0612 31.2692 44.3871L31.8049 42.3226ZM46.4516 33.0849C38.9646 33.6175 33.0323 39.8637 33.0323 47.4839C33.0323 49.7455 33.569 51.8803 34.5001 53.7879L35.5221 55.5819C38.1234 59.4137 42.5146 61.9355 47.4839 61.9355C52.4532 61.9355 56.8444 59.4137 59.4457 55.5819L60.4676 53.7879C61.3987 51.8803 61.9355 49.7455 61.9355 47.4839C61.9355 39.8637 56.0031 33.6175 48.5161 33.0849H46.4516ZM44.3871 20.6452C44.3871 20.0754 43.9236 19.6129 43.3548 19.6129C42.7861 19.6129 42.3226 20.0754 42.3226 20.6452C42.3226 21.215 42.7861 21.6774 43.3548 21.6774C43.9236 21.6774 44.3871 21.215 44.3871 20.6452ZM37.1613 13.4194C36.5925 13.4194 36.129 13.8818 36.129 14.4516C36.129 15.0214 36.5925 15.4839 37.1613 15.4839C37.7301 15.4839 38.1935 15.0214 38.1935 14.4516C38.1935 13.8818 37.7301 13.4194 37.1613 13.4194ZM27.871 24.7742C28.4397 24.7742 28.9032 24.3117 28.9032 23.7419C28.9032 23.1721 28.4397 22.7097 27.871 22.7097C27.3022 22.7097 26.8387 23.1721 26.8387 23.7419C26.8387 24.3117 27.3022 24.7742 27.871 24.7742ZM4.12903 13.4194H6.19355V11.3548H4.12903V13.4194ZM8.25806 13.4194H22.7097V11.3548H8.25806V13.4194ZM4.12903 17.5484H6.19355V15.4839H4.12903V17.5484ZM8.25806 17.5484H22.7097V15.4839H8.25806V17.5484ZM4.12903 21.6774H6.19355V19.6129H4.12903V21.6774ZM8.25806 21.6774H22.7097V19.6129H8.25806V21.6774ZM4.12903 25.8064H6.19355V23.7419H4.12903V25.8064ZM8.25806 25.8064H22.7097V23.7419H8.25806V25.8064Z" fill="#7F8284"/>
<path d="M5 34V44" stroke="#FF6B00" stroke-width="2"/>
<path d="M9 36L9 44" stroke="#FF6B00" stroke-width="2"/>
<path d="M13 38L13 44" stroke="#FF6B00" stroke-width="2"/>
<path d="M17 34V44" stroke="#FF6B00" stroke-width="2"/>
<path fill-rule="evenodd" clip-rule="evenodd" d="M47.5 44C48.8807 44 50 42.8807 50 41.5C50 40.1193 48.8807 39 47.5 39C46.1193 39 45 40.1193 45 41.5C45 42.8807 46.1193 44 47.5 44ZM47.5 46C49.9853 46 52 43.9853 52 41.5C52 39.0147 49.9853 37 47.5 37C45.0147 37 43 39.0147 43 41.5C43 43.9853 45.0147 46 47.5 46Z" fill="#FF6B00"/>
<path fill-rule="evenodd" clip-rule="evenodd" d="M53.8153 54.5C53.5159 52.9029 52.8651 51.4569 51.9559 50.3338C50.6884 48.768 49.0711 48 47.5 48C45.9289 48 44.3116 48.768 43.0441 50.3338C42.1349 51.4569 41.4841 52.9029 41.1847 54.5L53.8153 54.5ZM55.8444 54.5C55.5239 52.4596 54.7174 50.5664 53.5104 49.0754C51.9163 47.1062 49.7543 46 47.5 46C45.2457 46 43.0837 47.1062 41.4896 49.0754C40.2826 50.5664 39.4761 52.4596 39.1556 54.5C39.0528 55.1543 39 55.8238 39 56.5L56 56.5C56 55.8238 55.9472 55.1543 55.8444 54.5Z" fill="#FF6B00"/>
</svg>

<svg xmlns="http://www.w3.org/2000/svg" width="64" height="64" fill="none" xmlns:v="https://vecta.io/nano"><path fill-rule="evenodd" d="M56.774 0C60.759 0 64 3.242 64 7.226c0 3.632-2.697 6.639-6.194 7.143v20.243C61.577 37.641 64 42.282 64 47.484A16.54 16.54 0 0 1 47.484 64c-8.758 0-15.927-6.858-16.463-15.484H0V7.226h49.548C49.548 3.242 52.79 0 56.774 0zm5.161 7.226a5.17 5.17 0 0 0-5.161-5.161 5.17 5.17 0 0 0-5.161 5.161 5.17 5.17 0 0 0 5.161 5.161 5.17 5.17 0 0 0 5.161-5.161zM31.805 42.323c.324-.983.733-1.925 1.227-2.817l2.065-2.909c3.029-3.443 7.453-5.629 12.387-5.629 3.01 0 5.825.823 8.258 2.236V14.37c-1.221-.177-2.342-.657-3.287-1.365l-6.314 6.313c.194.404.311.85.311 1.326a3.1 3.1 0 0 1-3.097 3.097 3.1 3.1 0 0 1-3.097-3.097c0-.477.117-.923.31-1.328l-2.08-2.08c-.404.194-.849.311-1.326.311s-.923-.117-1.328-.31l-5.177 5.177c.194.404.311.849.311 1.326a3.1 3.1 0 0 1-3.097 3.097 3.1 3.1 0 0 1-3.097-3.097 3.1 3.1 0 0 1 3.097-3.097 3.07 3.07 0 0 1 1.328.31l5.177-5.177c-.194-.404-.311-.85-.311-1.327a3.1 3.1 0 0 1 3.097-3.097 3.1 3.1 0 0 1 3.097 3.097c0 .477-.117.923-.31 1.328l2.08 2.08c.404-.194.849-.311 1.326-.311s.923.117 1.328.311l6.313-6.313a7.22 7.22 0 0 1-1.143-2.255H2.065v37.161H31.02a16.55 16.55 0 0 1 .249-2.065l.536-2.064zm14.647-9.238c-7.487.533-13.419 6.779-13.419 14.399a14.33 14.33 0 0 0 1.468 6.304l1.022 1.794c2.601 3.832 6.993 6.354 11.962 6.354s9.361-2.522 11.962-6.354l1.022-1.794a14.33 14.33 0 0 0 1.468-6.304c0-7.62-5.932-13.866-13.419-14.399h-2.065zm-2.065-12.44c0-.57-.463-1.032-1.032-1.032s-1.032.462-1.032 1.032.463 1.032 1.032 1.032 1.032-.462 1.032-1.032zm-7.226-7.226c-.569 0-1.032.462-1.032 1.032s.464 1.032 1.032 1.032 1.032-.463 1.032-1.032-.463-1.032-1.032-1.032zm-9.29 11.355c.569 0 1.032-.463 1.032-1.032s-.463-1.032-1.032-1.032-1.032.462-1.032 1.032.463 1.032 1.032 1.032zM4.129 13.419h2.065v-2.065H4.129v2.065zm4.129 0H22.71v-2.065H8.258v2.065zm-4.129 4.129h2.065v-2.065H4.129v2.065zm4.129 0H22.71v-2.065H8.258v2.065zm-4.129 4.129h2.065v-2.064H4.129v2.064zm4.129 0H22.71v-2.064H8.258v2.064zm-4.129 4.129h2.065v-2.064H4.129v2.064zm4.129 0H22.71v-2.064H8.258v2.064z" fill="#7f8284"/><path d="M5 34v10m4-8v8m4-6v6m4-10v10" stroke="#ff6b00" stroke-width="2"/><g fill-rule="evenodd" fill="#ff6b00"><path d="M47.5 44a2.5 2.5 0 1 0 0-5 2.5 2.5 0 1 0 0 5zm0 2a4.5 4.5 0 1 0 0-9 4.5 4.5 0 1 0 0 9z"/><path d="M53.815 54.5c-.299-1.597-.95-3.043-1.859-4.166C50.688 48.768 49.071 48 47.5 48s-3.188.768-4.456 2.334c-.909 1.123-1.56 2.569-1.859 4.166h12.631zm2.029 0c-.321-2.04-1.127-3.934-2.334-5.425C51.916 47.106 49.754 46 47.5 46s-4.416 1.106-6.01 3.075c-1.207 1.491-2.014 3.384-2.334 5.425-.103.654-.156 1.324-.156 2h17c0-.676-.053-1.346-.156-2z"/></g></svg>
